src/icons/illustrations/store.svg

<?xml version="1.0" encoding="UTF-8"?>
<svg viewBox="0 0 75 66" version="1.1" xmlns="http://www.w3.org/2000/svg" xmlns:xlink="http://www.w3.org/1999/xlink">
    <!-- Generator: Sketch 62 (91390) - https://sketch.com -->
    <title>store</title>
    <desc>Created with Sketch.</desc>
    <g id="Page-1" stroke="none" stroke-width="1" fill="none" fill-rule="evenodd">
        <g id="dato-omnichannel" transform="translate(-974.000000, -24.000000)" fill="#000000" fill-rule="nonzero">
            <g id="Group-7" transform="translate(974.000000, 24.000000)">
                <g id="Group-3">
                    <path d="M50.6468,60.208 C52.2518,60.177 53.1918,59.558 53.4198,58.568 C53.7418,57.177 53.2608,55.75 52.2948,55.225 C51.1128,54.582 49.5798,54.855 48.3338,55.932 C47.1678,56.941 46.7358,57.939 47.1538,58.659 C47.8838,59.915 49.1018,60.145 50.4008,60.207 C50.5798,60.215 50.7598,60.208 50.6468,60.208 M57.9378,57.134 C57.8558,60.746 56.3748,62.53 53.0348,63.777 C51.6268,64.303 50.2318,64.796 48.8318,64.249 C46.8288,63.466 44.6358,62.907 43.2088,61.128 C42.7948,60.614 42.5068,59.769 42.5878,59.13 C42.9888,55.957 44.2608,53.295 47.1738,51.565 C51.0058,49.29 56.0758,51.821 57.5978,55.349 C57.8758,55.991 57.8708,56.756 57.9378,57.134 M29.8348,55.95 C28.7138,55.885 27.7548,56.604 27.4078,57.728 C27.0788,58.795 27.5328,60.011 28.4148,60.53 C29.5528,61.2 30.7668,61.34 32.0328,61.076 C32.9728,60.88 33.7748,59.77 33.8088,58.648 C33.8328,57.878 33.5248,57.27 32.8058,56.927 C31.8428,56.468 30.9338,55.837 29.8348,55.95 M30.1458,51.276 C32.0228,51.03 34.0428,51.742 35.8758,52.963 C38.6618,54.818 39.2358,58.789 37.3748,61.555 C34.6718,65.572 30.0678,65.998 26.8908,65.367 C24.0898,64.812 22.2048,62.598 21.8788,59.721 C21.5548,56.849 22.5348,54.412 24.6408,52.451 C26.1068,51.085 27.9728,51.32 30.1458,51.276 M49.0038,16.526 C41.0448,15.962 31.5008,17.485 21.9038,17.803 C20.3208,17.855 18.7498,18.479 17.1948,18.914 C16.9608,18.979 16.6988,19.465 16.7007773,19.755 C16.7068,21.52 18.0008,22.9 19.6038,22.914 C20.3298,22.919 21.0578,22.909 21.7838,22.87 C27.1708,22.576 32.5568,22.188 37.9488,22 C43.0318,21.821 48.1258,21.959 53.2068,21.755 C57.8978,21.567 62.5798,21.121 67.2628,20.763 C68.1748,20.693 68.6778,19.714 68.6818263,18.183 C68.6848,17.106 68.1778,16.54 67.0308,16.535 C61.5808,16.514 56.1298,16.526 49.0038,16.526 M33.8098,40.079 C33.8098,40.152 40.4978,40.402 43.6028,40.202 C46.4078,40.28 52.2578,39.473 56.6038,39.408 C57.8708,39.389 59.1228,39.352 60.3078,38.72 C61.2948,38.193 62.1498,37.658 62.5568,36.525 C63.7808,33.126 65.0918,29.759 66.3038,26.357 C66.7698,25.05 65.9438,24.04 64.6578,24.425 C61.4658,25.381 58.2108,25.37 54.9598,25.203 C52.8068,25.093 38.4548,25.253 32.3448,25.685 C29.8288,26.038 27.3418,26.342 24.8148,26.392 C23.5438,26.417 22.2718,26.331 21.0018,26.359 C18.7878,26.407 18.1778,27.251 18.7928,29.512 C19.5948,32.473 20.4598,35.417 21.3178,38.363 C21.7758,39.936 22.2618,40.299 24.0888,40.279 C27.3308,40.244 30.5698,40.149 33.8098,40.079 M48.8388,44.954 C45.0638,45.233 34.6518,45.175 33.2248,45.123 C30.1388,45.01 27.0468,45.065 23.9598,44.996 C19.7418,44.902 17.0108,43.152 15.7108,39.249 C14.5758,35.84 13.7738,32.312 12.9538,28.807 C11.6378,23.183 10.4578,17.527 9.1528,11.901 C8.8698,10.68 8.3458,9.507 7.8558,8.344 C6.8558,5.972 5.2358,4.465 2.4598,4.601 C1.9318,4.627 1.3118,4.571 0.8828,4.309 C0.4718,4.056 0.0648,3.51 0.0078,3.05 C-0.0472,2.601 0.2038,1.912 0.5578,1.647 C2.7338,0.028 5.2688,-0.388 7.7898,0.357 C9.8648,0.971 11.6448,2.037 12.3438,4.558 C12.9638,6.795 14.2638,8.825 14.5008,11.241 C14.6258,12.51 15.5008,13.097 16.7878,13.107 C18.0568,13.118 19.3658,13.219 20.5918,12.966 C26.8788,11.667 33.2488,12.243 39.5808,12.001 C43.3738,11.857 64.3708,10.967 71.0918,10.989 C73.3518,10.996 74.4538,12.269 74.3928,14.421 C74.3518,15.867 74.2028,17.284 73.7168,18.696 C71.5458,25.025 69.5318,31.407 67.3408,37.729 C65.6698,42.551 62.2288,44.884 57.0138,44.948 C54.2898,44.981 51.5638,44.954 48.8388,44.954" id="Fill-1"></path>
                </g>
            </g>
        </g>
    </g>
</svg>

<svg xmlns="http://www.w3.org/2000/svg" viewBox="0 0 75 66"><path fill-rule="nonzero" d="M50.647 60.208c1.605-.031 2.545-.65 2.773-1.64.322-1.391-.16-2.818-1.125-3.343-1.182-.643-2.715-.37-3.961.707-1.166 1.009-1.598 2.007-1.18 2.727.73 1.256 1.948 1.486 3.247 1.548.179.008.359.001.246.001m7.29-3.074c-.081 3.612-1.562 5.396-4.902 6.643-1.408.526-2.803 1.019-4.203.472-2.003-.783-4.196-1.342-5.623-3.121-.414-.514-.702-1.359-.621-1.998.4-3.173 1.673-5.835 4.586-7.565 3.832-2.275 8.902.256 10.424 3.784.278.642.273 1.407.34 1.785M29.835 55.95c-1.121-.065-2.08.654-2.427 1.778-.33 1.067.125 2.283 1.007 2.802 1.138.67 2.352.81 3.618.546.94-.196 1.742-1.306 1.776-2.428.024-.77-.284-1.378-1.003-1.721-.963-.459-1.872-1.09-2.971-.977m.31-4.674c1.878-.246 3.898.466 5.73 1.687 2.787 1.855 3.36 5.826 1.5 8.592-2.703 4.017-7.307 4.443-10.484 3.812-2.801-.555-4.686-2.769-5.012-5.646-.324-2.872.656-5.309 2.762-7.27 1.466-1.366 3.332-1.131 5.505-1.175m18.858-34.75c-7.96-.564-17.503.959-27.1 1.277-1.583.052-3.154.676-4.71 1.111-.233.065-.495.551-.493.841.006 1.765 1.3 3.145 2.903 3.159.726.005 1.454-.005 2.18-.044 5.387-.294 10.773-.682 16.165-.87 5.083-.179 10.177-.041 15.258-.245 4.69-.188 9.373-.634 14.056-.992.912-.07 1.415-1.049 1.419-2.58.003-1.077-.504-1.643-1.651-1.648-5.45-.021-10.901-.009-18.027-.009M33.81 40.079c0 .073 6.688.323 9.793.123 2.805.078 8.655-.729 13-.794 1.268-.019 2.52-.056 3.705-.688.987-.527 1.842-1.062 2.249-2.195 1.224-3.399 2.535-6.766 3.747-10.168.466-1.307-.36-2.317-1.646-1.932-3.192.956-6.447.945-9.698.778-2.153-.11-16.505.05-22.615.482-2.516.353-5.003.657-7.53.707-1.271.025-2.543-.061-3.813-.033-2.214.048-2.824.892-2.21 3.153.803 2.961 1.668 5.905 2.526 8.851.458 1.573.944 1.936 2.77 1.916 3.243-.035 6.482-.13 9.722-.2m15.029 4.875c-3.775.279-14.187.221-15.614.169-3.086-.113-6.178-.058-9.265-.127-4.218-.094-6.95-1.844-8.25-5.747-1.134-3.409-1.936-6.937-2.756-10.442-1.316-5.624-2.496-11.28-3.801-16.906-.283-1.221-.807-2.394-1.297-3.557-1-2.372-2.62-3.879-5.396-3.743-.528.026-1.148-.03-1.577-.292C.472 4.056.065 3.51.008 3.05c-.055-.449.196-1.138.55-1.403C2.734.028 5.268-.388 7.79.357c2.075.614 3.855 1.68 4.554 4.201.62 2.237 1.92 4.267 2.157 6.683.125 1.269 1 1.856 2.287 1.866 1.269.011 2.578.112 3.804-.141 6.287-1.299 12.657-.723 18.989-.965 3.793-.144 24.79-1.034 31.51-1.012 2.26.007 3.363 1.28 3.302 3.432-.041 1.446-.19 2.863-.676 4.275-2.171 6.329-4.185 12.711-6.376 19.033-1.671 4.822-5.112 7.155-10.327 7.219-2.724.033-5.45.006-8.175.006"/></svg>
